X: 6
T: Jackets Green, The
Z: John Thejoke
S: https://thesession.org/tunes/8683#setting29359
R: barndance
M: 4/4
L: 1/8
K: Cmaj
|: c2cB A2GE | D>EDC A,2CD | E2E2 D2D2 | C6 G2|
G2E2 G2AB | c3B A3G | ABAG EDEG | A6 G2 |
G2E2 G2AB | c3B A3G | ABAG EDEG | A6 G2 |
c2cB A2GE |D>EDC A,2CD | E2E2 D2D2 | C6 G2 :|
